Gurmukhi/0A5B.svg

<svg enable-background="new 0 0 336 592" viewBox="0 0 336 592" xmlns="http://www.w3.org/2000/svg"><path d="m115.51796 265.498352c4.569442-4.001953 9.32698-6.977844 14.788238-8.821472 8.637161-2.915726 14.353729.254516 16.237747 9.105347.207733.975891.496277 1.942169.612397 2.928802 1.058746 8.994782 1.049987 8.996887 10.314636 8.998932 18.162582.003998 36.326385-.105957 54.486816.093689 4.241196.046631 5.85994-.994293 5.790558-5.550354-.251144-16.492462-.236725-32.992996-.006775-49.486069.061478-4.410003-1.322159-5.705551-5.691894-5.690307-41.82341.145782-83.647919.01361-125.470871.216461-5.015213.024338-7.765839-1.43042-8.975945-6.329514-.7528-3.047699-2.291031-5.892471-3.301964-8.887329-1.648124-4.882522-.574485-6.509491 4.420929-6.902527 1.491753-.11737 2.997299-.079376 4.496521-.079147 60.986267.009109 121.972763.096435 182.958435-.087021 5.740326-.017258 9.083557 1.489166 10.39032 7.260712.654297 2.889801 2.259796 5.550338 3.177185 8.397659 1.395844 4.332199-.030395 6.376129-4.596283 6.437988-8.496551.115143-17.002166.240555-25.491134-.034973-4.674561-.151764-6.370163 1.2565-6.355286 6.195679.162643 53.98732.103989 107.975326.126358 161.963119.003036 7.321289-1.658859 8.30661-8.294098 4.798249-4.270172-2.257843-8.457947-4.711029-12.871628-6.6456-3.601608-1.578613-4.715698-3.891418-4.690048-7.750549.158402-23.826935-.027634-47.656281.16922-71.482636.037247-4.508026-1.172363-6.11557-5.852005-6.065948-20.159866.213715-40.323761.169373-60.484909.03125-3.895554-.026672-5.173584 1.258667-5.199463 5.183228-.093338 14.149475.710678 28.313354-.84523 42.447296-1.897903 17.240692-8.425644 32.020111-21.803635 43.515747-3.316742 2.850097-5.866714 3.573181-9.32373.167999-3.425408-3.374115-7.438667-6.151489-11.194496-9.190063-3.03608-2.456208-3.073014-4.962098-.047226-7.42508 13.76799-11.207001 18.588897-26.267731 18.686409-43.354248.046585-8.164551-.086334-16.331818.084266-24.493194.07026-3.360962-.977584-4.909974-4.528137-4.813843-2.127495.057586-4.310402-.434113-6.405266-.940247-7.194618-1.738342-10.602394-7.684753-8.531097-14.863342 2.209061-7.656036 7.263985-13.368195 13.221085-18.848694z"/><path d="m191.911972 377.246643c3.304886 4.822846 4.19371 9.843597 3.003265 15.085297-2.122482 9.345428-10.722427 14.124847-20.953933 11.880218-8.381882-1.838806-13.730057-10.68277-12.206925-20.185791 1.335449-8.332062 9.580872-13.920776 18.616913-12.742126 4.463501.582214 8.366104 2.119354 11.54068 5.962402z"/></svg>

<svg version="1.1" id="Layer_1" xmlns="http://www.w3.org/2000/svg" xmlns:xlink="http://www.w3.org/1999/xlink" x="0px" y="0px"
	 width="100%" viewBox="0 0 336 592" enable-background="new 0 0 336 592" xml:space="preserve">
<path fill="#000000" opacity="1.000000" stroke="none" 
	d="
M115.517960,265.498352 
	C120.087402,261.496399 124.844940,258.520508 130.306198,256.676880 
	C138.943359,253.761154 144.659927,256.931396 146.543945,265.782227 
	C146.751678,266.758118 147.040222,267.724396 147.156342,268.711029 
	C148.215088,277.705811 148.206329,277.707916 157.470978,277.709961 
	C175.633560,277.713959 193.797363,277.604004 211.957794,277.803650 
	C216.198990,277.850281 217.817734,276.809357 217.748352,272.253296 
	C217.497208,255.760834 217.511627,239.260300 217.741577,222.767227 
	C217.803055,218.357224 216.419418,217.061676 212.049683,217.076920 
	C170.226273,217.222702 128.401764,217.090530 86.578812,217.293381 
	C81.563599,217.317719 78.812973,215.862961 77.602867,210.963867 
	C76.850067,207.916168 75.311836,205.071396 74.300903,202.076538 
	C72.652779,197.194016 73.726418,195.567047 78.721832,195.174011 
	C80.213585,195.056641 81.719131,195.094635 83.218353,195.094864 
	C144.204620,195.103973 205.191116,195.191299 266.176788,195.007843 
	C271.917114,194.990585 275.260345,196.497009 276.567108,202.268555 
	C277.221405,205.158356 278.826904,207.818893 279.744293,210.666214 
	C281.140137,214.998413 279.713898,217.042343 275.148010,217.104202 
	C266.651459,217.219345 258.145844,217.344757 249.656876,217.069229 
	C244.982315,216.917465 243.286713,218.325729 243.301590,223.264908 
	C243.464233,277.252228 243.405579,331.240234 243.427948,385.228027 
	C243.430984,392.549316 241.769089,393.534637 235.133850,390.026276 
	C230.863678,387.768433 226.675903,385.315247 222.262222,383.380676 
	C218.660614,381.802063 217.546524,379.489258 217.572174,375.630127 
	C217.730576,351.803192 217.544540,327.973846 217.741394,304.147491 
	C217.778641,299.639465 216.569031,298.031921 211.889389,298.081543 
	C191.729523,298.295258 171.565628,298.250916 151.404480,298.112793 
	C147.508926,298.086121 146.230896,299.371460 146.205017,303.296021 
	C146.111679,317.445496 146.915695,331.609375 145.359787,345.743317 
	C143.461884,362.984009 136.934143,377.763428 123.556152,389.259064 
	C120.239410,392.109161 117.689438,392.832245 114.232422,389.427063 
	C110.807014,386.052948 106.793755,383.275574 103.037926,380.237000 
	C100.001846,377.780792 99.964912,375.274902 102.990700,372.811920 
	C116.758690,361.604919 121.579597,346.544189 121.677109,329.457672 
	C121.723694,321.293121 121.590775,313.125854 121.761375,304.964478 
	C121.831635,301.603516 120.783791,300.054504 117.233238,300.150635 
	C115.105743,300.208221 112.922836,299.716522 110.827972,299.210388 
	C103.633354,297.472046 100.225578,291.525635 102.296875,284.347046 
	C104.505936,276.691010 109.560860,270.978851 115.517960,265.498352 
z"/>
<path fill="#000000" opacity="1.000000" stroke="none" 
	d="
M191.911972,377.246643 
	C195.216858,382.069489 196.105682,387.090240 194.915237,392.331940 
	C192.792755,401.677368 184.192810,406.456787 173.961304,404.212158 
	C165.579422,402.373352 160.231247,393.529388 161.754379,384.026367 
	C163.089828,375.694305 171.335251,370.105591 180.371292,371.284241 
	C184.834793,371.866455 188.737396,373.403595 191.911972,377.246643 
z"/>
</svg>
